src/assets/images/icons/share-forward-2-line.svg

<svg width="24" height="24" viewBox="0 0 24 24" fill="none" xmlns="http://www.w3.org/2000/svg">
<g clip-path="url(#clip0_58_16800)">
<path d="M4 19H20V14H22V20C22 20.2652 21.8946 20.5196 21.7071 20.7071C21.5196 20.8946 21.2652 21 21 21H3C2.73478 21 2.48043 20.8946 2.29289 20.7071C2.10536 20.5196 2 20.2652 2 20V14H4V19ZM16.172 6.99999L12.222 3.04999L13.636 1.63599L20 7.99999L13.636 14.364L12.222 12.95L16.172 8.99999H5V6.99999H16.172Z" fill="#181D27"/>
</g>
<defs>
<clipPath id="clip0_58_16800">
<rect width="24" height="24" fill="white"/>
</clipPath>
</defs>
</svg>

<svg xmlns="http://www.w3.org/2000/svg" width="24" height="24" fill="none" viewBox="0 0 24 24"><g clip-path="url(#a)"><path fill="#181d27" d="M4 19h16v-5h2v6a1 1 0 0 1-1 1H3a1 1 0 0 1-1-1v-6h2zM16.172 7l-3.95-3.95 1.414-1.414L20 8l-6.364 6.364-1.414-1.414L16.172 9H5V7z"/></g><defs><clipPath id="a"><path fill="#fff" d="M0 0h24v24H0z"/></clipPath></defs></svg>
